icons/jiraalign/jiraalign-original.svg

<?xml version="1.0" encoding="UTF-8"?>
<svg xmlns="http://www.w3.org/2000/svg" xmlns:xlink="http://www.w3.org/1999/xlink" width="128px" height="128px" viewBox="0 0 128 128" version="1.1">
<defs>
<linearGradient id="linear0" gradientUnits="userSpaceOnUse" x1="8.221" y1="20.546" x2="9.771" y2="12.639" gradientTransform="matrix(6.46335,0,0,6.46335,0.556,-37.409)">
<stop offset="0.15" style="stop-color:rgb(0%,32.156863%,80%);stop-opacity:1;"/>
<stop offset="0.503" style="stop-color:rgb(5.490196%,39.215686%,87.058824%);stop-opacity:1;"/>
<stop offset="1" style="stop-color:rgb(14.901961%,51.764706%,100%);stop-opacity:1;"/>
</linearGradient>
<linearGradient id="linear1" gradientUnits="userSpaceOnUse" x1="11.391" y1="10.847" x2="9.84" y2="18.754" gradientTransform="matrix(6.46335,0,0,6.46335,0.556,-37.409)">
<stop offset="0.15" style="stop-color:rgb(0%,32.156863%,80%);stop-opacity:1;"/>
<stop offset="0.503" style="stop-color:rgb(5.490196%,39.215686%,87.058824%);stop-opacity:1;"/>
<stop offset="1" style="stop-color:rgb(14.901961%,51.764706%,100%);stop-opacity:1;"/>
</linearGradient>
</defs>
<g id="surface1">
<path style=" stroke:none;fill-rule:nonzero;fill:url(#linear0);" d="M 0.554688 0 C 0.554688 24.101562 20.042969 43.757812 43.929688 43.757812 L 84.070312 43.757812 L 84.070312 84.476562 L 127.4375 84.476562 L 127.4375 7.253906 C 127.4375 3.503906 124.425781 0.234375 120.714844 0.234375 Z M 0.554688 0 "/>
<path style=" stroke:none;fill-rule:nonzero;fill:url(#linear1);" d="M 127.210938 128 C 127.210938 103.894531 107.726562 84.476562 83.828125 84.476562 L 43.929688 84.476562 L 43.929688 43.757812 L 0.554688 43.757812 L 0.554688 120.980469 C 0.554688 124.722656 3.574219 128 7.277344 128 Z M 127.210938 128 "/>
</g>
</svg>

<svg xmlns="http://www.w3.org/2000/svg" viewBox="0 0 128 128"><defs><linearGradient id="a" x1="8.221" x2="9.771" y1="20.546" y2="12.639" gradientTransform="translate(.556 -37.409) scale(6.46335)" gradientUnits="userSpaceOnUse"><stop offset=".15" stop-color="#0052cc"/><stop offset=".503" stop-color="#0e64de"/><stop offset="1" stop-color="#2684ff"/></linearGradient><linearGradient id="b" x1="11.391" x2="9.84" y1="10.847" y2="18.754" gradientTransform="translate(.556 -37.409) scale(6.46335)" gradientUnits="userSpaceOnUse"><stop offset=".15" stop-color="#0052cc"/><stop offset=".503" stop-color="#0e64de"/><stop offset="1" stop-color="#2684ff"/></linearGradient></defs><path fill="url(#a)" d="M.555 0c0 24.102 19.488 43.758 43.375 43.758h40.14v40.719h43.368V7.254c0-3.75-3.012-7.02-6.723-7.02Zm0 0"/><path fill="url(#b)" d="M127.21 128c0-24.105-19.483-43.523-43.382-43.523H43.93v-40.72H.555v77.223c0 3.743 3.02 7.02 6.722 7.02Zm0 0"/></svg>
